X:98
T: WILLST DU ABER NICHT RECHT LIEBEN
N: E0699C
O: Europa, Mitteleuropa, Deutschland, Hessen, Wetterau, Langsdorf
R: Liebes - Lied, Leid, Klage
M: 3/4
L: 1/8
K: Bb
DF | B2F2GA | BFF2
AB | c3FGF | D4
FF | edcBBG | G2F2
FA | Bdf2ec | B4

@@@ Tune index: 4411
